X:1
T: Miss Flora's Favourite
R: reel
B: RSCDS __-24
Z: 1997 by John Chambers <jc:trillian.mit.edu>
M: C|
L: 1/8
%--------------------
K: C
|: f \
| "C"e<c cc c2ec | "F"fe"(D/F)"dc "G7"Bagf | "C"e<c cc "D7"c2ac | "G7"BGAB "C"c3 :|
|| F \
| "C"EFGE "F"FGAc | "G7"BcdB "C"cdef | efge "F"af"(D7)"dc | "G7"BGAB "C"c2z ||
|| F \
| "C7"EFGE "F"FcAc | "G7"BcdB | "C"cgeg | "A7"aAag "Dm"fedc | "G7"BGAB "C"c2z |]
